X:18791
T:Willie Clancy's
R:fling
S:J\"orgen Fischer
Z:id:hn-hf-13
M:C|
K:G
GB~B2 c3e|dG{A}GA B2{c}AG|1 GB~B2 cd{a}ec|
d2{a}ed {c}BGD2:|2 c2cB ce{a}ge|d2{a}dB {c}AD{A}ED||
~G2Bd g3d|{a}edBd de{a}gd|~G2Bd ~g3e|~f2ed ed{c}BA|
~G2Bd g3d|{a}edBd dega|{b}af{a}gf {a}fe{a}ed|{a}gedB deg2||


